src/assets/images/dish-white.svg

<svg height="120" viewBox="0 0 120 120" width="120" xmlns="http://www.w3.org/2000/svg"><g fill="#fff"><path d="m118.673143 110.967429h-.004898-116.38922459c-.60857143 0-1.10204082-.49347-1.10204082-1.102041 0-32.6488166 26.63755101-59.2106941 59.37942861-59.2106941 15.729551 0 30.5703673 6.1653061 41.7884078 17.3603265 11.211674 11.188898 17.397551 26.011102 17.42547 41.7448166.003183.034775.004898.069796.004898.105551 0 .608816-.49347 1.102041-1.102041 1.102041zm-115.28155116-2.204082h114.16408116c-.589714-30.9266939-25.9322444-55.9045715-56.9992648-55.9045715-31.1571429 0-56.57338779 24.9778776-57.16481636 55.9045715z"/><path d="m118.834041 119.438939h-117.5502859c-.60857143 0-1.10204081-.49347-1.10204081-1.102041s.49346938-1.102041 1.10204081-1.102041h117.5502859c.608571 0 1.102041.49347 1.102041 1.102041s-.493225 1.102041-1.102041 1.102041z"/><path d="m96.4217143 83.740898c-.372 0-.7349388-.1885715-.9426123-.5294694-7.5249796-12.3715102-21.160653-20.0566531-35.5861224-20.0566531-.6085714 0-1.1020408-.4934694-1.1020408-1.1020408s.4934694-1.1020408 1.1020408-1.1020408c7.6393469 0 15.1782857 2.0167347 21.8020408 5.8324898 6.4168163 3.6967347 11.834449 8.9813877 15.6673469 15.2826122.3161633.5201633.1511021 1.1980408-.3688163 1.514449-.1790204.1087347-.376653.1606531-.5718367.1606531z"/><path d="m59.229551 52.8587755c-6.2982857 0-11.232-5.006449-11.232-11.3980408 0-6.295102 4.9337143-11.2261225 11.232-11.2261225 6.2831021 0 11.3948572 5.0358368 11.3948572 11.2261225 0 3.0891429-1.1919184 5.9693877-3.3563266 8.1107755-2.1423673 2.1198367-4.9973877 3.2872653-8.0385306 3.2872653zm0-20.4198367c-5.0622857 0-9.0279183 3.9629388-9.0279183 9.0220408 0 5.1553469 3.9653877 9.1939592 9.0279183 9.1939592 5.1538776 0 9.1907755-4.0383674 9.1907755-9.1939592.0002449-4.9748572-4.1228571-9.0220408-9.1907755-9.0220408z"/><path d="m20.7088163 88.0591837h-4.8134694c-.6085714 0-1.1020408-.4934694-1.1020408-1.1020408 0-.6085715.4934694-1.1020409 1.1020408-1.1020409h4.8134694c.6085715 0 1.1020408.4934694 1.1020408 1.1020409 0 .6085714-.4934693 1.1020408-1.1020408 1.1020408z"/><path d="m23.697551 97.8521633h-4.8137143c-.6085714 0-1.1020408-.4934694-1.1020408-1.1020409 0-.6085714.4934694-1.1020408 1.1020408-1.1020408h4.8137143c.6085714 0 1.1020408.4934694 1.1020408 1.1020408 0 .6085715-.4934694 1.1020409-1.1020408 1.1020409z"/><path d="m34.6569796 90.216h-4.6503674c-.6085714 0-1.1020408-.4934694-1.1020408-1.1020408s.4934694-1.1020408 1.1020408-1.1020408h4.6503674c.6085714 0 1.1020408.4934694 1.1020408 1.1020408s-.4934694 1.1020408-1.1020408 1.1020408z"/><path d="m40.4684082 100.843347h-4.6503674c-.6085714 0-1.1020408-.493469-1.1020408-1.1020409 0-.6085714.4934694-1.1020408 1.1020408-1.1020408h4.6503674c.6085714 0 1.1020408.4934694 1.1020408 1.1020408 0 .6085719-.4934694 1.1020409-1.1020408 1.1020409z"/><path d="m30.6697959 81.2466122h-4.6474286c-.6085714 0-1.1020408-.4934693-1.1020408-1.1020408 0-.6085714.4934694-1.1020408 1.1020408-1.1020408h4.6474286c.6085714 0 1.1020408.4934694 1.1020408 1.1020408 0 .6085715-.4932245 1.1020408-1.1020408 1.1020408z"/><path d="m43.9545306 77.7636735h-4.8164082c-.6085714 0-1.1020408-.4934694-1.1020408-1.1020408 0-.6085715.4934694-1.1020409 1.1020408-1.1020409h4.8164082c.6085714 0 1.1020408.4934694 1.1020408 1.1020409 0 .6085714-.4932245 1.1020408-1.1020408 1.1020408z"/><path d="m48.7677551 88.0591837h-4.6476735c-.6085714 0-1.1020408-.4934694-1.1020408-1.1020408 0-.6085715.4934694-1.1020409 1.1020408-1.1020409h4.6476735c.6085714 0 1.1020408.4934694 1.1020408 1.1020409 0 .6085714-.4932245 1.1020408-1.1020408 1.1020408z"/><path d="m51.4246531 97.6858776h-4.8132245c-.6085715 0-1.1020408-.4934694-1.1020408-1.1020409 0-.6085714.4934693-1.1020408 1.1020408-1.1020408h4.8134694c.6085714 0 1.1020408.4934694 1.1020408 1.1020408 0 .6085715-.4934694 1.1020409-1.1022857 1.1020409z"/><path d="m36.3156735 36.4197551c-.6085715 0-1.1020408-.4934694-1.1020408-1.1020408v-18.0979592c0-.6085714.4934693-1.1020408 1.1020408-1.1020408.6085714 0 1.1020408.4934694 1.1020408 1.1020408v18.0979592c0 .6088163-.4934694 1.1020408-1.1020408 1.1020408z"/><path d="m77.493551 31.7752653c-.6085714 0-1.1020408-.4934694-1.1020408-1.1020408v-12.9555918c0-.6085715.4934694-1.1020409 1.1020408-1.1020409s1.1020408.4934694 1.1020408 1.1020409v12.9555918c0 .6085714-.4934694 1.1020408-1.1020408 1.1020408z"/><path d="m94.4272653 49.701551c-.6085714 0-1.1020408-.4934694-1.1020408-1.1020408v-15.2723265c0-.6085715.4934694-1.1020408 1.1020408-1.1020408s1.1020408.4934693 1.1020408 1.1020408v15.2723265c0 .6085714-.4934694 1.1020408-1.1020408 1.1020408z"/><path d="m19.2159184 54.0200816c-.6085715 0-1.1020408-.4934694-1.1020408-1.1020408v-18.0977143c0-.6085714.4934693-1.1020408 1.1020408-1.1020408.6085714 0 1.1020408.4934694 1.1020408 1.1020408v18.0977143c0 .6085714-.4934694 1.1020408-1.1020408 1.1020408z"/><path d="m59.3953469 17.6586122c-.6085714 0-1.1020408-.4934693-1.1020408-1.1020408v-15.2723265c0-.60857143.4934694-1.10204082 1.1020408-1.10204082.6085715 0 1.1020409.49346939 1.1020409 1.10204082v15.2723265c0 .6085715-.4932245 1.1020408-1.1020409 1.1020408z"/></g></svg>

<?xml version="1.0" encoding="UTF-8"?>
<svg width="120px" height="120px" viewBox="0 0 120 120" version="1.1" xmlns="http://www.w3.org/2000/svg" xmlns:xlink="http://www.w3.org/1999/xlink">
    <!-- Generator: Sketch 43.1 (39012) - http://www.bohemiancoding.com/sketch -->
    <title>dish</title>
    <desc>Created with Sketch.</desc>
    <defs></defs>
    <g id="Page-1" stroke="none" stroke-width="1" fill="none" fill-rule="evenodd">
        <g id="dish" fill-rule="nonzero" fill="#FFFFFF">
            <path d="M118.673143,110.967429 L118.668245,110.967429 L2.27902041,110.967429 C1.67044898,110.967429 1.17697959,110.473959 1.17697959,109.865388 C1.17697959,77.2165714 27.8145306,50.6546939 60.5564082,50.6546939 C76.2859592,50.6546939 91.1267755,56.82 102.344816,68.0150204 C113.55649,79.2039184 119.742367,94.0261224 119.770286,109.759837 C119.773469,109.794612 119.775184,109.829633 119.775184,109.865388 C119.775184,110.474204 119.281714,110.967429 118.673143,110.967429 Z M3.39159184,108.763347 L117.555673,108.763347 C116.965959,77.8366531 91.6234286,52.8587755 60.5564082,52.8587755 C29.3992653,52.8587755 3.98302041,77.8366531 3.39159184,108.763347 Z" id="Shape"></path>
            <path d="M118.834041,119.438939 L1.2837551,119.438939 C0.675183673,119.438939 0.181714286,118.945469 0.181714286,118.336898 C0.181714286,117.728327 0.675183673,117.234857 1.2837551,117.234857 L118.834041,117.234857 C119.442612,117.234857 119.936082,117.728327 119.936082,118.336898 C119.936082,118.945469 119.442857,119.438939 118.834041,119.438939 Z" id="Shape"></path>
            <path d="M96.4217143,83.740898 C96.0497143,83.740898 95.6867755,83.5523265 95.479102,83.2114286 C87.9541224,70.8399184 74.318449,63.1547755 59.8929796,63.1547755 C59.2844082,63.1547755 58.7909388,62.6613061 58.7909388,62.0527347 C58.7909388,61.4441633 59.2844082,60.9506939 59.8929796,60.9506939 C67.5323265,60.9506939 75.0712653,62.9674286 81.6950204,66.7831837 C88.1118367,70.4799184 93.5294694,75.7645714 97.3623673,82.0657959 C97.6785306,82.5859592 97.5134694,83.2638367 96.993551,83.5802449 C96.8145306,83.6889796 96.616898,83.740898 96.4217143,83.740898 Z" id="Shape"></path>
            <path d="M59.229551,52.8587755 C52.9312653,52.8587755 47.997551,47.8523265 47.997551,41.4607347 C47.997551,35.1656327 52.9312653,30.2346122 59.229551,30.2346122 C65.5126531,30.2346122 70.6244082,35.270449 70.6244082,41.4607347 C70.6244082,44.5498776 69.4324898,47.4301224 67.2680816,49.5715102 C65.1257143,51.6913469 62.2706939,52.8587755 59.229551,52.8587755 Z M59.229551,32.4389388 C54.1672653,32.4389388 50.2016327,36.4018776 50.2016327,41.4609796 C50.2016327,46.6163265 54.1670204,50.6549388 59.229551,50.6549388 C64.3834286,50.6549388 68.4203265,46.6165714 68.4203265,41.4609796 C68.4205714,36.4861224 64.2974694,32.4389388 59.229551,32.4389388 Z" id="Shape"></path>
            <path d="M20.7088163,88.0591837 L15.8953469,88.0591837 C15.2867755,88.0591837 14.7933061,87.5657143 14.7933061,86.9571429 C14.7933061,86.3485714 15.2867755,85.855102 15.8953469,85.855102 L20.7088163,85.855102 C21.3173878,85.855102 21.8108571,86.3485714 21.8108571,86.9571429 C21.8108571,87.5657143 21.3173878,88.0591837 20.7088163,88.0591837 Z" id="Shape"></path>
            <path d="M23.697551,97.8521633 L18.8838367,97.8521633 C18.2752653,97.8521633 17.7817959,97.3586939 17.7817959,96.7501224 C17.7817959,96.141551 18.2752653,95.6480816 18.8838367,95.6480816 L23.697551,95.6480816 C24.3061224,95.6480816 24.7995918,96.141551 24.7995918,96.7501224 C24.7995918,97.3586939 24.3061224,97.8521633 23.697551,97.8521633 Z" id="Shape"></path>
            <path d="M34.6569796,90.216 L30.0066122,90.216 C29.3980408,90.216 28.9045714,89.7225306 28.9045714,89.1139592 C28.9045714,88.5053878 29.3980408,88.0119184 30.0066122,88.0119184 L34.6569796,88.0119184 C35.265551,88.0119184 35.7590204,88.5053878 35.7590204,89.1139592 C35.7590204,89.7225306 35.265551,90.216 34.6569796,90.216 Z" id="Shape"></path>
            <path d="M40.4684082,100.843347 L35.8180408,100.843347 C35.2094694,100.843347 34.716,100.349878 34.716,99.7413061 C34.716,99.1327347 35.2094694,98.6392653 35.8180408,98.6392653 L40.4684082,98.6392653 C41.0769796,98.6392653 41.570449,99.1327347 41.570449,99.7413061 C41.570449,100.349878 41.0769796,100.843347 40.4684082,100.843347 Z" id="Shape"></path>
            <path d="M30.6697959,81.2466122 L26.0223673,81.2466122 C25.4137959,81.2466122 24.9203265,80.7531429 24.9203265,80.1445714 C24.9203265,79.536 25.4137959,79.0425306 26.0223673,79.0425306 L30.6697959,79.0425306 C31.2783673,79.0425306 31.7718367,79.536 31.7718367,80.1445714 C31.7718367,80.7531429 31.2786122,81.2466122 30.6697959,81.2466122 Z" id="Shape"></path>
            <path d="M43.9545306,77.7636735 L39.1381224,77.7636735 C38.529551,77.7636735 38.0360816,77.2702041 38.0360816,76.6616327 C38.0360816,76.0530612 38.529551,75.5595918 39.1381224,75.5595918 L43.9545306,75.5595918 C44.563102,75.5595918 45.0565714,76.0530612 45.0565714,76.6616327 C45.0565714,77.2702041 44.5633469,77.7636735 43.9545306,77.7636735 Z" id="Shape"></path>
            <path d="M48.7677551,88.0591837 L44.1200816,88.0591837 C43.5115102,88.0591837 43.0180408,87.5657143 43.0180408,86.9571429 C43.0180408,86.3485714 43.5115102,85.855102 44.1200816,85.855102 L48.7677551,85.855102 C49.3763265,85.855102 49.8697959,86.3485714 49.8697959,86.9571429 C49.8697959,87.5657143 49.3765714,88.0591837 48.7677551,88.0591837 Z" id="Shape"></path>
            <path d="M51.4246531,97.6858776 L46.6114286,97.6858776 C46.0028571,97.6858776 45.5093878,97.1924082 45.5093878,96.5838367 C45.5093878,95.9752653 46.0028571,95.4817959 46.6114286,95.4817959 L51.424898,95.4817959 C52.0334694,95.4817959 52.5269388,95.9752653 52.5269388,96.5838367 C52.5269388,97.1924082 52.0334694,97.6858776 51.4246531,97.6858776 Z" id="Shape"></path>
            <path d="M36.3156735,36.4197551 C35.707102,36.4197551 35.2136327,35.9262857 35.2136327,35.3177143 L35.2136327,17.2197551 C35.2136327,16.6111837 35.707102,16.1177143 36.3156735,16.1177143 C36.9242449,16.1177143 37.4177143,16.6111837 37.4177143,17.2197551 L37.4177143,35.3177143 C37.4177143,35.9265306 36.9242449,36.4197551 36.3156735,36.4197551 Z" id="Shape"></path>
            <path d="M77.493551,31.7752653 C76.8849796,31.7752653 76.3915102,31.2817959 76.3915102,30.6732245 L76.3915102,17.7176327 C76.3915102,17.1090612 76.8849796,16.6155918 77.493551,16.6155918 C78.1021224,16.6155918 78.5955918,17.1090612 78.5955918,17.7176327 L78.5955918,30.6732245 C78.5955918,31.2817959 78.1021224,31.7752653 77.493551,31.7752653 Z" id="Shape"></path>
            <path d="M94.4272653,49.701551 C93.8186939,49.701551 93.3252245,49.2080816 93.3252245,48.5995102 L93.3252245,33.3271837 C93.3252245,32.7186122 93.8186939,32.2251429 94.4272653,32.2251429 C95.0358367,32.2251429 95.5293061,32.7186122 95.5293061,33.3271837 L95.5293061,48.5995102 C95.5293061,49.2080816 95.0358367,49.701551 94.4272653,49.701551 Z" id="Shape"></path>
            <path d="M19.2159184,54.0200816 C18.6073469,54.0200816 18.1138776,53.5266122 18.1138776,52.9180408 L18.1138776,34.8203265 C18.1138776,34.2117551 18.6073469,33.7182857 19.2159184,33.7182857 C19.8244898,33.7182857 20.3179592,34.2117551 20.3179592,34.8203265 L20.3179592,52.9180408 C20.3179592,53.5266122 19.8244898,54.0200816 19.2159184,54.0200816 Z" id="Shape"></path>
            <path d="M59.3953469,17.6586122 C58.7867755,17.6586122 58.2933061,17.1651429 58.2933061,16.5565714 L58.2933061,1.2842449 C58.2933061,0.675673469 58.7867755,0.182204082 59.3953469,0.182204082 C60.0039184,0.182204082 60.4973878,0.675673469 60.4973878,1.2842449 L60.4973878,16.5565714 C60.4973878,17.1651429 60.0041633,17.6586122 59.3953469,17.6586122 Z" id="Shape"></path>
        </g>
    </g>
</svg>
